media/unlocked.svg

<svg width="17" height="24" viewBox="0 0 17 24" xmlns="http://www.w3.org/2000/svg"><path d="M8.381 18.762a2.101 2.101 0 0 0 2.095-2.095 2.101 2.101 0 0 0-2.095-2.096 2.101 2.101 0 0 0-2.095 2.096c0 1.152.943 2.095 2.095 2.095zm5.238-9.429v-4.095a5.24 5.24 0 0 0-5.238-5.238 5.24 5.24 0 0 0-5.238 5.238h1.99a3.25 3.25 0 0 1 3.248-3.248 3.25 3.25 0 0 1 3.248 3.248v4.095h-9.534a2.101 2.101 0 0 0-2.095 2.097v10.476c0 1.151.943 2.094 2.095 2.094h12.572a2.101 2.101 0 0 0 2.095-2.095v-10.476a2.101 2.101 0 0 0-2.095-2.096h-1.048zm1.048 12.572h-12.572v-10.476h12.572v10.476z" fill="#585C60" fill-rule="evenodd"/></svg>

<svg width="17" height="24" viewBox="0 0 17 24" xmlns="http://www.w3.org/2000/svg"><path d="M8.381 18.762a2.101 2.101 0 0 0 2.095-2.095 2.101 2.101 0 0 0-2.095-2.096 2.101 2.101 0 0 0-2.095 2.096c0 1.152.943 2.095 2.095 2.095zm5.238-9.429V5.238A5.24 5.24 0 0 0 8.381 0a5.24 5.24 0 0 0-5.238 5.238h1.99A3.25 3.25 0 0 1 8.381 1.99a3.25 3.25 0 0 1 3.248 3.248v4.095H2.095A2.101 2.101 0 0 0 0 11.43v10.476C0 23.057.943 24 2.095 24h12.572a2.101 2.101 0 0 0 2.095-2.095V11.429a2.101 2.101 0 0 0-2.095-2.096h-1.048zm1.048 12.572H2.095V11.429h12.572v10.476z" fill="#585C60" fill-rule="evenodd"/></svg>
